Solutions/Auth0/Data Connectors/Logo/Auth0.svg

<svg width="81" height="24" viewBox="0 0 81 24" fill="none">
    <path d="M18.5334 0H10.7619L13.1617 7.51092H20.9333L14.6477 11.984L17.0475 19.5348C21.0922 16.5767 22.4192 12.0956 20.9333 7.50295L18.5334 0ZM0.590492 7.51092H8.36206L10.7619 0H2.9903L0.590492 7.51092C-0.895483 12.1036 0.431564 16.5846 4.47628 19.5428L6.87609 11.992L0.590492 7.51092ZM4.47628 19.5348L10.7619 23.9999L17.0475 19.5348L10.7619 14.99L4.47628 19.5348ZM63.1286 7.31956C61.293 7.31956 60.1169 8.15677 59.5686 9.52022H59.4256V3.34085H56.6682V19.5029H59.4891V12.4863C59.4891 10.7481 60.5619 9.75145 62.0797 9.75145C63.5577 9.75145 64.4318 10.7003 64.4318 12.3189V19.5029H67.2527V11.8484C67.2448 8.93816 65.6078 7.31956 63.1286 7.31956ZM74.8733 3.30895C71.0591 3.30895 68.7546 6.30694 68.7467 11.5136C68.7467 16.7361 71.0352 19.774 74.8733 19.774C78.7035 19.782 81 16.7441 81 11.5136C80.9921 6.31492 78.6876 3.30895 74.8733 3.30895ZM71.663 11.5136C71.6709 7.71026 72.9026 5.70894 74.8733 5.70894C76.2242 5.70894 77.2255 6.63385 77.7261 8.42786L71.7107 12.8132C71.6789 12.4146 71.663 11.976 71.663 11.5136ZM74.8733 17.3421C73.4827 17.3421 72.4576 16.3534 71.9729 14.4398L78.0201 10.0305C78.0678 10.493 78.0916 10.9873 78.0916 11.5215C78.0916 15.3488 76.8599 17.3421 74.8733 17.3421ZM43.9698 14.4557C43.9698 16.2816 42.6666 17.1906 41.419 17.1906C40.0602 17.1906 39.1623 16.2258 39.1623 14.7029V7.49498H36.3413V15.1415C36.3413 18.0278 37.9783 19.6624 40.3304 19.6624C42.1263 19.6624 43.3818 18.7135 43.9301 17.374H44.0572V19.5109H46.7908V7.49498H43.9698V14.4557ZM29.9603 7.31159C27.4413 7.31159 25.5104 8.43584 24.8906 10.6285L27.5208 11.0033C27.7989 10.182 28.5936 9.48035 29.9762 9.48035C31.2874 9.48035 32.0026 10.1501 32.0026 11.3302V11.378C32.0026 12.1913 31.1523 12.2312 29.0386 12.4544C26.7182 12.7016 24.4932 13.4033 24.4932 16.1062C24.4932 18.4664 26.2176 19.7182 28.4982 19.7182C30.3736 19.7182 31.494 18.8331 32.0105 17.8285H32.1059V19.479H34.8156V11.4418C34.8235 8.2684 32.2489 7.31159 29.9603 7.31159ZM32.0105 15.1654C32.0105 16.5049 30.9378 17.6371 29.2372 17.6371C28.0612 17.6371 27.2188 17.0949 27.2188 16.0584C27.2188 14.974 28.1645 14.5195 29.42 14.3361C30.159 14.2325 31.637 14.0491 32.0105 13.7461V15.1654ZM52.8142 4.48901H49.9932V7.49498H48.2847V9.75145H49.9932V16.4012C49.9773 18.6577 51.6143 19.774 53.7359 19.7102C54.3717 19.6943 54.8484 19.5906 55.1742 19.4949V17.2544C54.9597 17.2863 54.4591 17.3501 54.1015 17.3581C53.3942 17.374 52.8221 17.1109 52.8221 15.9627V9.75145H55.1742V7.50295H52.8142V4.48901Z" fill="#000">
    </path>
</svg>

<svg width="81" height="24" fill="none" xmlns="http://www.w3.org/2000/svg"><path d="M18.533 0h-7.771l2.4 7.51h7.771l-6.285 4.474 2.4 7.55c4.044-2.957 5.371-7.438 3.885-12.031L18.533 0ZM.59 7.51h7.772l2.4-7.51H2.99L.59 7.51c-1.485 4.594-.158 9.075 3.886 12.033l2.4-7.551L.59 7.511Zm3.886 12.025L10.762 24l6.285-4.465-6.285-4.545-6.286 4.545ZM63.13 7.32c-1.836 0-3.012.837-3.56 2.2h-.143V3.34h-2.758v16.163h2.821v-7.017c0-1.738 1.073-2.735 2.59-2.735 1.479 0 2.353.95 2.353 2.568v7.184h2.82v-7.655c-.007-2.91-1.644-4.528-4.123-4.528Zm11.744-4.011c-3.814 0-6.118 2.998-6.126 8.205 0 5.222 2.288 8.26 6.126 8.26 3.83.008 6.127-3.03 6.127-8.26-.008-5.2-2.312-8.205-6.127-8.205Zm-3.21 8.205c.008-3.804 1.24-5.805 3.21-5.805 1.351 0 2.352.925 2.853 2.719l-6.015 4.385a16.508 16.508 0 0 1-.048-1.3Zm3.21 5.828c-1.39 0-2.415-.989-2.9-2.902l6.047-4.41c.048.463.072.957.072 1.492 0 3.827-1.232 5.82-3.219 5.82ZM43.97 14.456c0 1.826-1.303 2.735-2.551 2.735-1.359 0-2.257-.965-2.257-2.488V7.495h-2.82v7.647c0 2.886 1.636 4.52 3.988 4.52 1.796 0 3.052-.948 3.6-2.288h.127v2.137h2.734V7.495H43.97v6.96ZM29.96 7.312c-2.519 0-4.45 1.124-5.07 3.317l2.63.374c.279-.821 1.074-1.523 2.456-1.523 1.311 0 2.027.67 2.027 1.85v.048c0 .813-.85.853-2.964 1.076-2.32.248-4.546.95-4.546 3.652 0 2.36 1.725 3.612 4.005 3.612 1.876 0 2.996-.885 3.512-1.89h.096v1.651h2.71v-8.037c.008-3.174-2.567-4.13-4.856-4.13Zm2.05 7.853c0 1.34-1.072 2.472-2.773 2.472-1.176 0-2.018-.542-2.018-1.579 0-1.084.945-1.538 2.201-1.722.739-.104 2.217-.287 2.59-.59v1.42ZM52.814 4.49h-2.82v3.006h-1.71v2.256h1.71v6.65c-.017 2.257 1.62 3.373 3.742 3.31a5.543 5.543 0 0 0 1.438-.216v-2.24c-.214.031-.715.095-1.072.103-.708.016-1.28-.247-1.28-1.395V9.75h2.352V7.503h-2.36V4.489Z" fill="#000" style="--darkreader-inline-fill:#000000"/></svg>
